images_sukapura_svg/cmd/sc_insertrowsafter.svg

<svg height="16" viewBox="0 0 16 16" width="16" xmlns="http://www.w3.org/2000/svg"><path d="m1 1v3l9-.00781v-2.99219zm0 4v4h9v-4.007812z" fill="#fff"/><path d="m5 1v3h-4v1h9v-1h-4v-3zm0 2.9960938v.0039062h-.8652344-3.1347656v1h3.9238281.0761719v.261719c.018856.104022.026956.208888.021484.310547-.0026092.04844-.014568.092199-.021484.138672v3.289062h1v-4h4v-1h-4v-.00195z" fill="#bababa"/><path d="m0 0v5h1v-1-3h9v3 1h1v-5zm0 4v1.105469 4.394531c-.00038442.276301.22369855.500384.5.5h10c.276301.000384.500384-.223699.5-.5v-4.5-.888672-.111328h-1v1h.113281l-.111328.111328v3.890625h-9.00390612v-3.896484h.00195312v-.105469-1z" fill="#69696e"/><path d="m6 11h9v3h-9z" fill="#32d74b"/><path d="m5 10v5h11v-5zm1 1h4v3h-4zm5 0h4v3h-4z" fill="#007018"/></svg>

<?xml version="1.0" encoding="UTF-8" standalone="no"?>
<svg
   xmlns:dc="http://purl.org/dc/elements/1.1/"
   xmlns:cc="http://creativecommons.org/ns#"
   xmlns:rdf="http://www.w3.org/1999/02/22-rdf-syntax-ns#"
   xmlns:svg="http://www.w3.org/2000/svg"
   xmlns="http://www.w3.org/2000/svg"
   xmlns:sodipodi="http://sodipodi.sourceforge.net/DTD/sodipodi-0.dtd"
   xmlns:inkscape="http://www.inkscape.org/namespaces/inkscape"
   viewBox="0 0 16 16"
   version="1.1"
   id="svg14"
   sodipodi:docname="sc_insertrowsafter.svg"
   inkscape:export-filename="/home/rizmut/Documents/Rizmut/Github/libreoffice-style-sukapura/images_sukapura/cmd/sc_insertrowsafter.png"
   inkscape:export-xdpi="96"
   inkscape:export-ydpi="96"
   inkscape:version="0.92.3 (2405546, 2018-03-11)"
   width="16"
   height="16">
  <metadata
     id="metadata20">
    <rdf:RDF>
      <cc:Work
         rdf:about="">
        <dc:format>image/svg+xml</dc:format>
        <dc:type
           rdf:resource="http://purl.org/dc/dcmitype/StillImage" />
        <dc:title></dc:title>
      </cc:Work>
    </rdf:RDF>
  </metadata>
  <defs
     id="defs18">
    <filter
       style="color-interpolation-filters:sRGB"
       id="b"
       height="1.094553"
       width="1.097492"
       x="-0.048746001"
       y="-0.047277">
      <feGaussianBlur
         stdDeviation=".36559322"
         id="feGaussianBlur957" />
    </filter>
    <linearGradient
       gradientTransform="translate(-41,-2)"
       id="a"
       gradientUnits="userSpaceOnUse"
       x1="12"
       x2="12"
       y1="3"
       y2="21">
      <stop
         offset="0"
         stop-color="#efefef"
         id="stop948" />
      <stop
         offset=".33333334"
         stop-color="#fff"
         id="stop950" />
      <stop
         offset=".8888889"
         stop-color="#fff"
         id="stop952" />
      <stop
         offset="1"
         stop-color="#f5f5f5"
         id="stop954" />
    </linearGradient>
    <linearGradient
       gradientTransform="translate(32,-5)"
       id="a-3"
       gradientUnits="userSpaceOnUse"
       x1="14"
       x2="13.79661"
       y1="22"
       y2="2.1355929">
      <stop
         offset="0"
         stop-color="#0040dd"
         id="stop1604" />
      <stop
         offset="1"
         stop-color="#0a84ff"
         id="stop1606" />
    </linearGradient>
    <filter
       style="color-interpolation-filters:sRGB"
       id="b-6"
       height="1.094553"
       width="1.097492"
       x="-0.048746001"
       y="-0.047277">
      <feGaussianBlur
         stdDeviation=".36559322"
         id="feGaussianBlur957-7" />
    </filter>
    <clipPath
       clipPathUnits="userSpaceOnUse"
       id="clipPath870">
      <rect
         style="opacity:1;fill:#ffffff;fill-opacity:1;stroke:none;stroke-width:2;stroke-linecap:round;stroke-linejoin:round;stroke-miterlimit:4;stroke-dasharray:none;stroke-opacity:1"
         id="rect872"
         width="48"
         height="48"
         x="808"
         y="-528" />
    </clipPath>
    <linearGradient
       gradientTransform="translate(-25.830508,-3.5932203)"
       id="a-2"
       gradientUnits="userSpaceOnUse"
       x1="14"
       x2="13.79661"
       y1="22"
       y2="2.1355929">
      <stop
         offset="0"
         stop-color="#0040dd"
         id="stop2" />
      <stop
         offset="1"
         stop-color="#0a84ff"
         id="stop4" />
    </linearGradient>
  </defs>
  <sodipodi:namedview
     pagecolor="#ffffff"
     bordercolor="#666666"
     borderopacity="1"
     objecttolerance="10"
     gridtolerance="10"
     guidetolerance="10"
     inkscape:pageopacity="0"
     inkscape:pageshadow="2"
     inkscape:window-width="1366"
     inkscape:window-height="685"
     id="namedview16"
     showgrid="true"
     inkscape:zoom="16"
     inkscape:cx="3.048391"
     inkscape:cy="5.2130275"
     inkscape:window-x="0"
     inkscape:window-y="0"
     inkscape:window-maximized="1"
     inkscape:current-layer="g1014"
     inkscape:snap-global="true">
    <inkscape:grid
       type="xygrid"
       id="grid827"
       spacingx="0.5"
       spacingy="0.5"
       empspacing="2" />
  </sodipodi:namedview>
  <g
     id="g1014">
    <path
       style="fill:#ffffff"
       d="M 1,1 V 4 L 10,3.99219 V 1 Z m 0,4 v 4 h 9 V 4.992188 Z"
       id="path2-3"
       inkscape:connector-curvature="0"
       sodipodi:nodetypes="cccccccccc" />
    <path
       style="fill:#bababa;fill-opacity:1"
       d="M 5,1 V 4 H 1 v 1 h 9 V 4 H 6 V 1 Z M 5,3.9960938 V 4 H 4.1347656 1 V 5 H 4.9238281 5 V 5.261719 C 5.018856,5.365741 5.026956,5.470607 5.021484,5.572266 5.0188748,5.620706 5.006916,5.664465 5,5.710938 V 9 H 6 V 5 h 4 V 4 H 6 V 3.99805 Z"
       id="path4-6"
       inkscape:connector-curvature="0"
       sodipodi:nodetypes="ccccccccccccccccccccccccccc" />
    <path
       style="fill:#69696e;fill-opacity:1"
       d="M 0,0 V 5 H 1 V 4 1 h 9 v 3 1 h 1 V 0 Z M 0,4 V 5.105469 9.5 c -3.8442e-4,0.276301 0.22369855,0.500384 0.5,0.5 h 10 c 0.276301,3.84e-4 0.500384,-0.223699 0.5,-0.5 V 5 4.111328 4 h -1 v 1 h 0.113281 L 10.001953,5.111328 V 9.001953 H 0.99804688 V 5.105469 H 1 V 5 4 Z"
       id="path929"
       inkscape:connector-curvature="0"
       sodipodi:nodetypes="ccccccccccccccccccccccccccccccc" />
    <path
       style="opacity:1;fill:#32d74b;fill-opacity:1;stroke:none;stroke-width:2;stroke-linecap:round;stroke-linejoin:round;stroke-miterlimit:4;stroke-dasharray:none;stroke-opacity:1"
       d="m 6,11 h 9 v 3 H 6 Z"
       id="rect879"
       inkscape:connector-curvature="0"
       sodipodi:nodetypes="ccccc" />
    <path
       style="opacity:1;fill:#007018;fill-opacity:1;stroke:none;stroke-width:2;stroke-linecap:round;stroke-linejoin:round;stroke-miterlimit:4;stroke-dasharray:none;stroke-opacity:1"
       d="m 5,10 v 5 h 11 v -5 z m 1,1 h 4 v 3 H 6 Z m 5,0 h 4 v 3 h -4 z"
       id="rect874"
       inkscape:connector-curvature="0"
       sodipodi:nodetypes="ccccccccccccccc" />
  </g>
</svg>
